lib/flags/m/HND.svg

<svg xmlns="http://www.w3.org/2000/svg" fill="none" viewBox="0 0 20 15"><mask id="HND_svg__a" width="20" height="15" x="0" y="0" mask-type="alpha" maskUnits="userSpaceOnUse"><path fill="#fff" d="M0 0H20V15H0z"/></mask><g mask="url(#HND_svg__a)"><path fill="#F7FCFF" fill-rule="evenodd" d="M0 0V15H20V0H0Z" clip-rule="evenodd"/><mask id="HND_svg__b" width="20" height="15" x="0" y="0" mask-type="alpha" maskUnits="userSpaceOnUse"><path fill="#fff" fill-rule="evenodd" d="M0 0V15H20V0H0Z" clip-rule="evenodd"/></mask><g fill="#4564F9" fill-rule="evenodd" clip-rule="evenodd" mask="url(#HND_svg__b)"><path d="M0 0V5H20V0H0zM0 10V15H20V10H0zM10.5113 8.2074 9.77654 8.59367 9.91686 7.77553 9.32245 7.13644H10.1439L10.5113 6.3324 10.8786 7.13644H11.7001L11.1057 7.77553 11.246 8.59367 10.5113 8.2074zM6.76127 6.9574 6.02654 7.34367 6.16686 6.52553 5.57245 5.88644H6.3939L6.76127 5.0824 7.12864 5.88644H7.95009L7.35568 6.52553 7.496 7.34367 6.76127 6.9574zM6.76127 9.4574 6.02654 9.84367 6.16686 9.02553 5.57245 8.38644H6.3939L6.76127 7.5824 7.12864 8.38644H7.95009L7.35568 9.02553 7.496 9.84367 6.76127 9.4574zM14.2613 6.9574 13.5265 7.34367 13.6669 6.52553 13.0724 5.88644H13.8939L14.2613 5.0824 14.6286 5.88644H15.4501L14.8557 6.52553 14.996 7.34367 14.2613 6.9574zM14.2613 9.4574 13.5265 9.84367 13.6669 9.02553 13.0724 8.38644H13.8939L14.2613 7.5824 14.6286 8.38644H15.4501L14.8557 9.02553 14.996 9.84367 14.2613 9.4574z"/></g></g></svg>

<svg xmlns="http://www.w3.org/2000/svg" fill="none" viewBox="0 0 20 15"><mask id="HND_svg__a" width="20" height="15" x="0" y="0" maskUnits="userSpaceOnUse"><path fill="#fff" d="M0 0h20v15H0z"/></mask><g mask="url(#HND_svg__a)"><path fill="#F7FCFF" fill-rule="evenodd" d="M0 0v15h20V0H0z" clip-rule="evenodd"/><mask id="HND_svg__b" width="20" height="15" x="0" y="0" maskUnits="userSpaceOnUse"><path fill="#fff" fill-rule="evenodd" d="M0 0v15h20V0H0z" clip-rule="evenodd"/></mask><g fill="#4564F9" fill-rule="evenodd" clip-rule="evenodd" mask="url(#HND_svg__b)"><path d="M0 0v5h20V0H0zm0 10v5h20v-5H0zm10.511-1.793l-.734.387.14-.818-.595-.64h.822l.367-.804.368.804h.821l-.594.64.14.818-.735-.387zm-3.75-1.25l-.734.387.14-.818-.595-.64h.822l.367-.804.368.804h.821l-.594.64.14.818-.735-.387zm0 2.5l-.734.387.14-.818-.595-.64h.822l.367-.804.368.804h.821l-.594.64.14.818-.735-.387zm7.5-2.5l-.734.387.14-.818-.595-.64h.822l.367-.804.368.804h.821l-.594.64.14.818-.735-.387zm0 2.5l-.734.387.14-.818-.595-.64h.822l.367-.804.368.804h.821l-.594.64.14.818-.735-.387z"/></g></g></svg>
